X: 837
T: Alborada
R: polka
M: 2/4
K: Dmajor
e2|:a2 ag|f2 f<g|e3 d|c2 ea|ab ag|fb a/gf|e4-|eg f/gf|
d3 c|B2 ed|cc cB|AB cA|BB BA|GA B2|1 A4-|A2 e2:|2 A3 G|AE BE||
c3 A|B2 Bc|d3 B|c2 d2|e3 c|d2 e2|g3 e|f2 g2|a4-|a2 e2|
a2 ag|fg af|gg gf|ef ge|fg fe|de fd|ef ed|cd ef|d2 dc|
Bc dB|cd cB|AB cA|Bc BA|GA Bc|A4-|A2 e2||

